autogermania/dist/img/svg/down-arrow.svg

<svg width="20" height="12" viewBox="0 0 20 12" fill="none" xmlns="http://www.w3.org/2000/svg">
<path d="M19.6803 1.08077L19.0252 0.42109C18.819 0.215072 18.5447 0.101575 18.2515 0.101575C17.9585 0.101575 17.6839 0.215072 17.4777 0.42109L10.0045 7.89465L2.52262 0.412797C2.31677 0.206779 2.04213 0.0934448 1.74912 0.0934448C1.45611 0.0934448 1.18131 0.206779 0.975293 0.412797L0.320003 1.06841C-0.106668 1.49476 -0.106668 2.18924 0.320003 2.61558L9.22804 11.5557C9.4339 11.7615 9.70821 11.9066 10.0038 11.9066H10.0072C10.3004 11.9066 10.5747 11.7613 10.7806 11.5557L19.6803 2.63981C19.8865 2.43395 19.9997 2.15135 20 1.85834C20 1.56516 19.8865 1.28646 19.6803 1.08077Z" fill="white"/>
</svg>

<svg width="20" height="12" fill="none" xmlns="http://www.w3.org/2000/svg"><path d="M19.68 1.08l-.655-.659a1.086 1.086 0 00-.773-.32c-.293 0-.568.114-.774.32l-7.474 7.474L2.524.413a1.085 1.085 0 00-.774-.32c-.293 0-.568.114-.774.32l-.655.655a1.095 1.095 0 000 1.548l8.908 8.94c.206.206.48.35.776.35h.003c.293 0 .568-.145.774-.35l8.9-8.916c.206-.206.319-.489.319-.782 0-.293-.113-.572-.32-.777z" fill="#fff"/></svg>
